X: 8355
T: Countess Cathleen, The
R: slip jig
M: 9/8
K: Eminor
D|:EBB c/B/AG {B}ADD|E/F/Gd dcB AGd|fgf dcB ABc|1 dDc DBD AB/G/F:|2 dGe Gdc fga||
b2b c'/b/ag fga|bgd cdg dga|b3 b/c'/b/a/g fga|bgd cdg dgb|
d'2d' c'ba bag|afd gec fBd|ecd BcA BGA|F/G/dG AGF EF/E/D||

